icons-common/star.svg

<svg height="1em" width="auto" viewBox="0 0 105 105" fill="currentColor" xmlns="http://www.w3.org/2000/svg">
    <path d="M39.8237 84.1103C38.3571 84.1103 36.9335 83.9807 35.51 83.6785C32.7492 83.0307 30.5061 81.3897 29.2983 79.0577C26.8826 74.7392 25.8904 69.3843 26.3649 62.8633C22.0512 57.7675 19.6355 52.8013 19.0747 47.7486C18.7296 45.1143 19.5924 42.4369 21.4041 40.4072C24.7688 36.6933 29.5571 34.1022 36.0277 32.5475C39.4786 26.9335 43.5335 23.0037 48.063 20.9308C50.5649 19.8512 53.2826 19.8512 55.6983 20.9308C60.2708 23.0037 64.1963 26.7608 67.6904 32.418C74.2041 33.9726 79.0355 36.5637 82.4865 40.3208C84.2983 42.2641 85.161 44.8984 84.9022 47.5759C84.3414 52.5853 81.9688 57.5084 77.6982 62.6042C78.1728 69.2979 77.2237 74.7392 74.7649 79.1009C73.5139 81.3897 71.2277 83.0739 68.51 83.5921C63.6355 84.5853 58.2434 83.8512 52.161 81.3897C47.6747 83.2466 43.5767 84.1535 39.8237 84.1535V84.1103ZM51.9453 27.6677C51.6865 27.6677 51.4277 27.7108 51.1257 27.8404C47.761 29.395 44.5688 32.7635 41.6786 37.7729C41.161 38.723 40.212 39.3708 39.1767 39.5867C33.4826 40.7959 29.4708 42.696 26.9688 45.503C26.6237 45.8917 26.4512 46.3667 26.5375 46.8417C26.9688 50.6852 29.1257 54.6582 33.0943 59.0631C33.8277 59.8404 34.1728 60.92 34.0433 61.9996C33.4394 67.6137 34.0433 72.1481 35.9414 75.4301C36.2002 75.862 36.6316 76.1643 37.1492 76.2938C40.7728 77.028 45.259 76.2075 50.6512 73.7891C51.6434 73.3573 52.7649 73.3573 53.7139 73.7891C58.9767 76.1211 63.3335 76.8984 67.0434 76.1643C67.561 76.0779 67.9492 75.7756 68.1649 75.387C70.063 72.0185 70.6669 67.5273 70.063 61.6542C69.9335 60.5745 70.2786 59.5381 71.012 58.7608C74.8081 54.4855 76.9649 50.4693 77.3963 46.7122C77.4394 46.2372 77.2669 45.7621 76.9649 45.3735C74.3767 42.5233 70.1924 40.5367 64.5414 39.3708C63.5061 39.1548 62.5571 38.5071 62.0394 37.557C59.1492 32.5044 56.0434 29.3087 52.6355 27.754C52.4198 27.6677 52.161 27.6245 51.9453 27.6245V27.6677Z"
          />
</svg>

<svg xmlns="http://www.w3.org/2000/svg" width="auto" height="1em" fill="currentColor" viewBox="0 0 105 105">
    <path d="M39.824 84.11c-1.467 0-2.89-.13-4.314-.431-2.76-.648-5.004-2.29-6.212-4.621-2.415-4.319-3.408-9.674-2.933-16.195-4.314-5.096-6.73-10.062-7.29-15.114-.345-2.635.517-5.312 2.33-7.342 3.364-3.714 8.152-6.305 14.623-7.86 3.45-5.613 7.505-9.543 12.035-11.616 2.502-1.08 5.22-1.08 7.635 0 4.573 2.073 8.498 5.83 11.992 11.487 6.514 1.555 11.346 4.146 14.797 7.903 1.811 1.943 2.674 4.577 2.415 7.255-.56 5.01-2.933 9.932-7.204 15.028.475 6.694-.474 12.135-2.933 16.497-1.251 2.289-3.537 3.973-6.255 4.491-4.875.993-10.267.26-16.349-2.202-4.486 1.857-8.584 2.763-12.337 2.763zm12.121-56.442c-.258 0-.517.043-.82.172-3.364 1.555-6.556 4.924-9.446 9.933-.518.95-1.467 1.598-2.502 1.814-5.694 1.209-9.706 3.109-12.208 5.916-.345.389-.518.864-.431 1.339.43 3.843 2.588 7.816 6.556 12.221a3.64 3.64 0 0 1 .95 2.937c-.605 5.614 0 10.148 1.897 13.43.26.432.69.734 1.208.864 3.624.734 8.11-.087 13.502-2.505.992-.432 2.114-.432 3.063 0 5.263 2.332 9.62 3.11 13.33 2.375a1.55 1.55 0 0 0 1.12-.777c1.899-3.368 2.503-7.86 1.899-13.733a3.55 3.55 0 0 1 .949-2.893c3.796-4.276 5.953-8.292 6.384-12.049.043-.475-.13-.95-.431-1.339-2.588-2.85-6.773-4.836-12.424-6.002-1.035-.216-1.984-.864-2.502-1.814-2.89-5.053-5.996-8.248-9.404-9.803a2 2 0 0 0-.69-.13z"/>
</svg>
